X:1
T:The Manger Throne, PM
T:Charles Steggall, 1867
T:The Manger Throne, PM
T:Public Domain
C:Charles Steggall, 1867
Z:Public Domain
%%score ( 1 2 ) ( 3 4 )
L:1/8
M:4/4
K:Db
V:1 treble 
V:2 treble 
V:3 bass 
V:4 bass 
V:1
 [Fd]2 | [DA]2 [DB]2 [DA]2 [DF][DF] | [DE]2 [DE][DF] D2 [CE]2 | [DF]2 [DB][EB] [FA][FA] [Gd]2 | %4
 [Ac]6 A2 | d2 cB AGFE | DC[B,=G][B,G] [CA]2 [EB][EB] | E2 z d [Ee][Ee] [CA]2 | [DB]3 [Dc] [CA]2 | %9
 [CA]2 [DB]2 [DF][DF] [EA]2 [DA][DA] | [DB]2 [DF]2 [EA]2 [DA]2 | [DB][DB] [Gd]2 [Ge]3 [Gf] | %12
 [Fd]6 |] %13
V:2
 x2 | x8 | x4 D2 x2 | x8 | x6 A2 | d2 cB AG x2 | F2 x6 | c3 F2 x3 | x6 | x10 | x8 | x8 | x6 |] %13
V:3
 [D,A,]2 | [D,F,]2 [D,G,]2 [D,F,]2 [D,A,][D,A,] | [D,G,]2 [D,G,][D,A,] [D,F,]2 [C,A,]2 | %3
 [D,A,]2 [G,B,][G,C] [F,D][F,D] [B,D]2 | [A,E]6 A,2 | D2 CB, A,G,F,E, | %6
 [D,F]2 [E,E][E,E] [A,E]2 [=G,B,][G,B,] | A,2 [F,A,]2 [C,A,][C,A,] [F,A,]2 | %8
 [E,=G,]3 [E,G,] [A,,A,]2 | [A,C]2 [G,B,]2 [B,D][B,D] [A,C]2 [F,D][F,D] | %10
 [G,B,]2 [B,D]2 [A,C]2 [F,D]2 | [G,D][G,D] [B,D]2 [A,C]3 [A,C] | [D,D]6 |] %13
V:4
 x2 | x8 | x8 | x8 | x6 A,2 | D2 CB, A,G, F,2 | x8 | A,2 x6 | x6 | x10 | x8 | x8 | x6 |] %13

